icons/calendar.svg

<svg xmlns="http://www.w3.org/2000/svg" width="96" height="96"><path d="M76 28c-1.1 0-2.1-.4-2.8-1.2-.8-.7-1.2-1.7-1.2-2.8 0-1.1.4-2.1 1.2-2.8.7-.8 1.7-1.2 2.8-1.2h1.6c1.9.3 3.6 1.3 4.8 2.8 1.2 1.6 1.8 3.5 1.6 5.4V76c0 2.1-.8 4.2-2.3 5.7-1.5 1.5-3.6 2.3-5.7 2.3H20c-2.1 0-4.2-.8-5.7-2.3-1.5-1.5-2.3-3.6-2.3-5.7V28.2c-.2-1.9.4-3.8 1.6-5.4 1.2-1.5 2.9-2.5 4.8-2.8H20c1.1 0 2.1.4 2.8 1.2.8.7 1.2 1.7 1.2 2.8 0 1.1-.4 2.1-1.2 2.8-.7.8-1.7 1.2-2.8 1.2v48h56V28zM28 16c0-1.1.4-2.1 1.2-2.8.7-.8 1.7-1.2 2.8-1.2 1.1 0 2.1.4 2.8 1.2.8.7 1.2 1.7 1.2 2.8v16c0 1.1-.4 2.1-1.2 2.8-.7.8-1.7 1.2-2.8 1.2-1.1 0-2.1-.4-2.8-1.2-.8-.7-1.2-1.7-1.2-2.8V16zm32 0c0-1.1.4-2.1 1.2-2.8.7-.8 1.7-1.2 2.8-1.2 1.1 0 2.1.4 2.8 1.2.8.7 1.2 1.7 1.2 2.8v16c0 1.1-.4 2.1-1.2 2.8-.7.8-1.7 1.2-2.8 1.2-1.1 0-2.1-.4-2.8-1.2-.8-.7-1.2-1.7-1.2-2.8V16zM44 28c-1.1 0-2.1-.4-2.8-1.2-.8-.7-1.2-1.7-1.2-2.8 0-1.1.4-2.1 1.2-2.8.7-.8 1.7-1.2 2.8-1.2h8c1.1 0 2.1.4 2.8 1.2.8.7 1.2 1.7 1.2 2.8 0 1.1-.4 2.1-1.2 2.8-.7.8-1.7 1.2-2.8 1.2h-8z" fill-rule="evenodd" fill="#454545"/></svg>

<?xml version="1.0" standalone="no"?><!-- Generator: Gravit.io --><svg xmlns="http://www.w3.org/2000/svg" xmlns:xlink="http://www.w3.org/1999/xlink" width="96" height="96"><path d=" M 76 28 C 74.9 28 73.9 27.6 73.2 26.8 C 72.4 26.1 72 25.1 72 24 C 72 22.9 72.4 21.9 73.2 21.2 C 73.9 20.4 74.9 20 76 20 Q 77.4 20 77.6 20 C 79.5 20.3 81.2 21.3 82.4 22.8 C 83.6 24.4 84.2 26.3 84 28.2 L 84 76 C 84 78.1 83.2 80.2 81.7 81.7 C 80.2 83.2 78.1 84 76 84 L 20 84 C 17.9 84 15.8 83.2 14.3 81.7 C 12.8 80.2 12 78.1 12 76 L 12 28.2 C 11.8 26.3 12.4 24.4 13.6 22.8 C 14.8 21.3 16.5 20.3 18.4 20 Q 18.6 20 20 20 C 21.1 20 22.1 20.4 22.8 21.2 C 23.6 21.9 24 22.9 24 24 C 24 25.1 23.6 26.1 22.8 26.8 C 22.1 27.6 21.1 28 20 28 L 20 76 L 76 76 L 76 28 Z  M 28 16 C 28 14.9 28.4 13.9 29.2 13.2 C 29.9 12.4 30.9 12 32 12 C 33.1 12 34.1 12.4 34.8 13.2 C 35.6 13.9 36 14.9 36 16 L 36 32 C 36 33.1 35.6 34.1 34.8 34.8 C 34.1 35.6 33.1 36 32 36 C 30.9 36 29.9 35.6 29.2 34.8 C 28.4 34.1 28 33.1 28 32 L 28 16 Z  M 60 16 C 60 14.9 60.4 13.9 61.2 13.2 C 61.9 12.4 62.9 12 64 12 C 65.1 12 66.1 12.4 66.8 13.2 C 67.6 13.9 68 14.9 68 16 L 68 32 C 68 33.1 67.6 34.1 66.8 34.8 C 66.1 35.6 65.1 36 64 36 C 62.9 36 61.9 35.6 61.2 34.8 C 60.4 34.1 60 33.1 60 32 L 60 16 Z  M 44 28 C 42.9 28 41.9 27.6 41.2 26.8 C 40.4 26.1 40 25.1 40 24 C 40 22.9 40.4 21.9 41.2 21.2 C 41.9 20.4 42.9 20 44 20 L 52 20 C 53.1 20 54.1 20.4 54.8 21.2 C 55.6 21.9 56 22.9 56 24 C 56 25.1 55.6 26.1 54.8 26.8 C 54.1 27.6 53.1 28 52 28 L 44 28 Z " fill-rule="evenodd" fill="#454545" stroke="none"/><mask id="_mask_WaC3hcaU77gNqOUJorP1JQCtTLv8x0sK"><path d=" M 76 28 C 74.9 28 73.9 27.6 73.2 26.8 C 72.4 26.1 72 25.1 72 24 C 72 22.9 72.4 21.9 73.2 21.2 C 73.9 20.4 74.9 20 76 20 Q 77.4 20 77.6 20 C 79.5 20.3 81.2 21.3 82.4 22.8 C 83.6 24.4 84.2 26.3 84 28.2 L 84 76 C 84 78.1 83.2 80.2 81.7 81.7 C 80.2 83.2 78.1 84 76 84 L 20 84 C 17.9 84 15.8 83.2 14.3 81.7 C 12.8 80.2 12 78.1 12 76 L 12 28.2 C 11.8 26.3 12.4 24.4 13.6 22.8 C 14.8 21.3 16.5 20.3 18.4 20 Q 18.6 20 20 20 C 21.1 20 22.1 20.4 22.8 21.2 C 23.6 21.9 24 22.9 24 24 C 24 25.1 23.6 26.1 22.8 26.8 C 22.1 27.6 21.1 28 20 28 L 20 76 L 76 76 L 76 28 Z  M 28 16 C 28 14.9 28.4 13.9 29.2 13.2 C 29.9 12.4 30.9 12 32 12 C 33.1 12 34.1 12.4 34.8 13.2 C 35.6 13.9 36 14.9 36 16 L 36 32 C 36 33.1 35.6 34.1 34.8 34.8 C 34.1 35.6 33.1 36 32 36 C 30.9 36 29.9 35.6 29.2 34.8 C 28.4 34.1 28 33.1 28 32 L 28 16 Z  M 60 16 C 60 14.9 60.4 13.9 61.2 13.2 C 61.9 12.4 62.9 12 64 12 C 65.1 12 66.1 12.4 66.8 13.2 C 67.6 13.9 68 14.9 68 16 L 68 32 C 68 33.1 67.6 34.1 66.8 34.8 C 66.1 35.6 65.1 36 64 36 C 62.9 36 61.9 35.6 61.2 34.8 C 60.4 34.1 60 33.1 60 32 L 60 16 Z  M 44 28 C 42.9 28 41.9 27.6 41.2 26.8 C 40.4 26.1 40 25.1 40 24 C 40 22.9 40.4 21.9 41.2 21.2 C 41.9 20.4 42.9 20 44 20 L 52 20 C 53.1 20 54.1 20.4 54.8 21.2 C 55.6 21.9 56 22.9 56 24 C 56 25.1 55.6 26.1 54.8 26.8 C 54.1 27.6 53.1 28 52 28 L 44 28 Z " fill-rule="evenodd" fill="white" stroke="none"/></mask><path d=" M 76 28 C 74.9 28 73.9 27.6 73.2 26.8 C 72.4 26.1 72 25.1 72 24 C 72 22.9 72.4 21.9 73.2 21.2 C 73.9 20.4 74.9 20 76 20 Q 77.4 20 77.6 20 C 79.5 20.3 81.2 21.3 82.4 22.8 C 83.6 24.4 84.2 26.3 84 28.2 L 84 76 C 84 78.1 83.2 80.2 81.7 81.7 C 80.2 83.2 78.1 84 76 84 L 20 84 C 17.9 84 15.8 83.2 14.3 81.7 C 12.8 80.2 12 78.1 12 76 L 12 28.2 C 11.8 26.3 12.4 24.4 13.6 22.8 C 14.8 21.3 16.5 20.3 18.4 20 Q 18.6 20 20 20 C 21.1 20 22.1 20.4 22.8 21.2 C 23.6 21.9 24 22.9 24 24 C 24 25.1 23.6 26.1 22.8 26.8 C 22.1 27.6 21.1 28 20 28 L 20 76 L 76 76 L 76 28 Z  M 28 16 C 28 14.9 28.4 13.9 29.2 13.2 C 29.9 12.4 30.9 12 32 12 C 33.1 12 34.1 12.4 34.8 13.2 C 35.6 13.9 36 14.9 36 16 L 36 32 C 36 33.1 35.6 34.1 34.8 34.8 C 34.1 35.6 33.1 36 32 36 C 30.9 36 29.9 35.6 29.2 34.8 C 28.4 34.1 28 33.1 28 32 L 28 16 Z  M 60 16 C 60 14.9 60.4 13.9 61.2 13.2 C 61.9 12.4 62.9 12 64 12 C 65.1 12 66.1 12.4 66.8 13.2 C 67.6 13.9 68 14.9 68 16 L 68 32 C 68 33.1 67.6 34.1 66.8 34.8 C 66.1 35.6 65.1 36 64 36 C 62.9 36 61.9 35.6 61.2 34.8 C 60.4 34.1 60 33.1 60 32 L 60 16 Z  M 44 28 C 42.9 28 41.9 27.6 41.2 26.8 C 40.4 26.1 40 25.1 40 24 C 40 22.9 40.4 21.9 41.2 21.2 C 41.9 20.4 42.9 20 44 20 L 52 20 C 53.1 20 54.1 20.4 54.8 21.2 C 55.6 21.9 56 22.9 56 24 C 56 25.1 55.6 26.1 54.8 26.8 C 54.1 27.6 53.1 28 52 28 L 44 28 Z " fill-rule="evenodd" fill="none" stroke="none" stroke-width="16" mask="url(#_mask_WaC3hcaU77gNqOUJorP1JQCtTLv8x0sK)"/></svg>
